X: 7575
T: Cocktail, The
R: reel
M: 4/4
K: Dmajor
DFFE F3E|DF F2 AFEF|DFFE F3d|cAAG EFGE|
DFFE D2 FE|DF F2 AFEF|DFFE D3d|cAAG EFGE||
K:Am
EAcA eA A2|eA A2 BGEG|EAcA e3g|e3d cAAG|
EAcA eA A2|eA A2 BGBd|e3g aged|cAAG EA A2||

